svgs/gitnex.svg

<svg xmlns="http://www.w3.org/2000/svg" viewBox="0 0 192 192"><path fill="none" stroke="#000" stroke-linecap="round" stroke-linejoin="round" stroke-width="12" d="M47.935 145.82c-3.954 0-7.75 1.565-10.546 4.347a14.803 14.803 0 0 0-4.369 10.493c0 3.934 1.572 7.711 4.369 10.493a14.958 14.958 0 0 0 10.546 4.347 14.96 14.96 0 0 0 10.547-4.347 14.807 14.807 0 0 0 4.368-10.493c0-3.934-1.572-7.711-4.368-10.493a14.96 14.96 0 0 0-10.547-4.347Zm0-111.952c-3.149 0-6.219.992-8.767 2.834a14.845 14.845 0 0 0-5.418 7.42 14.775 14.775 0 0 0 0 9.172 14.845 14.845 0 0 0 5.418 7.42 14.975 14.975 0 0 0 17.534 0 14.845 14.845 0 0 0 5.418-7.42 14.76 14.76 0 0 0 0-9.172 14.845 14.845 0 0 0-5.418-7.42 14.966 14.966 0 0 0-8.767-2.834Zm96.13 0c-3.15 0-6.219.992-8.767 2.834a14.845 14.845 0 0 0-5.418 7.42 14.76 14.76 0 0 0 0 9.172 14.845 14.845 0 0 0 5.418 7.42 14.973 14.973 0 0 0 17.534 0 14.845 14.845 0 0 0 5.418-7.42 14.775 14.775 0 0 0 0-9.172 14.845 14.845 0 0 0-5.418-7.42 14.968 14.968 0 0 0-8.767-2.834Zm0 111.952a14.96 14.96 0 0 0-10.547 4.347 14.807 14.807 0 0 0-4.368 10.493c0 3.934 1.572 7.711 4.368 10.493a14.96 14.96 0 0 0 10.547 4.347c3.954 0 7.75-1.565 10.546-4.347a14.803 14.803 0 0 0 4.369-10.493c0-3.934-1.572-7.711-4.369-10.493a14.958 14.958 0 0 0-10.546-4.347ZM96 89.762a14.96 14.96 0 0 0-10.547 4.347 14.807 14.807 0 0 0-4.368 10.493c0 3.935 1.572 7.712 4.368 10.494A14.96 14.96 0 0 0 96 119.442a14.97 14.97 0 0 0 8.791-2.817 14.851 14.851 0 0 0 5.439-7.428 14.77 14.77 0 0 0 0-9.189 14.851 14.851 0 0 0-5.439-7.428A14.964 14.964 0 0 0 96 89.762ZM47.935 33.868V16.5m0 47.048v82.272m96.13 0V63.548"/><path fill="none" stroke="#000" stroke-linecap="round" stroke-linejoin="round" stroke-width="12" d="M62.85 48.708h12.662a20.549 20.549 0 0 1 14.487 5.97A20.34 20.34 0 0 1 96 69.092v20.67m0 29.68v20.833c0 5.405 2.16 10.593 6.001 14.414a20.545 20.545 0 0 0 14.487 5.971h12.662"/></svg>

<svg
    xmlns="http://www.w3.org/2000/svg"
    viewBox="0 0 192 192"
    id="vector">
    <path
        id="path"
        d="M 47.935 145.82 C 43.981 145.82 40.185 147.385 37.389 150.167 C 34.592 152.949 33.02 156.726 33.02 160.66 C 33.02 164.594 34.592 168.371 37.389 171.153 C 40.185 173.935 43.981 175.5 47.935 175.5 C 51.889 175.5 55.686 173.935 58.482 171.153 C 61.278 168.371 62.85 164.594 62.85 160.66 C 62.85 156.726 61.278 152.949 58.482 150.167 C 55.686 147.385 51.889 145.82 47.935 145.82 Z M 47.935 33.868 C 44.786 33.868 41.716 34.86 39.168 36.702 C 36.62 38.544 34.723 41.142 33.75 44.122 C 32.777 47.102 32.777 50.313 33.75 53.294 C 34.723 56.274 36.62 58.872 39.168 60.714 C 41.716 62.555 44.786 63.548 47.935 63.548 C 51.085 63.548 54.154 62.555 56.702 60.714 C 59.25 58.872 61.147 56.274 62.12 53.294 C 63.094 50.313 63.094 47.102 62.12 44.122 C 61.147 41.142 59.25 38.544 56.702 36.702 C 54.154 34.86 51.085 33.868 47.935 33.868 Z M 144.065 33.868 C 140.915 33.868 137.846 34.86 135.298 36.702 C 132.75 38.544 130.853 41.142 129.88 44.122 C 128.906 47.102 128.906 50.313 129.88 53.294 C 130.853 56.274 132.75 58.872 135.298 60.714 C 137.846 62.555 140.915 63.548 144.065 63.548 C 147.214 63.548 150.284 62.555 152.832 60.714 C 155.38 58.872 157.277 56.274 158.25 53.294 C 159.223 50.313 159.223 47.102 158.25 44.122 C 157.277 41.142 155.38 38.544 152.832 36.702 C 150.284 34.86 147.214 33.868 144.065 33.868 Z M 144.065 145.82 C 140.111 145.82 136.314 147.385 133.518 150.167 C 130.722 152.949 129.15 156.726 129.15 160.66 C 129.15 164.594 130.722 168.371 133.518 171.153 C 136.314 173.935 140.111 175.5 144.065 175.5 C 148.019 175.5 151.815 173.935 154.611 171.153 C 157.408 168.371 158.98 164.594 158.98 160.66 C 158.98 156.726 157.408 152.949 154.611 150.167 C 151.815 147.385 148.019 145.82 144.065 145.82 Z M 96 89.762 C 92.046 89.762 88.249 91.327 85.453 94.109 C 82.657 96.891 81.085 100.668 81.085 104.602 C 81.085 108.537 82.657 112.314 85.453 115.096 C 88.249 117.878 92.046 119.442 96 119.442 C 99.156 119.452 102.235 118.465 104.791 116.625 C 107.348 114.784 109.252 112.183 110.23 109.197 C 111.207 106.212 111.207 102.993 110.23 100.008 C 109.252 97.022 107.348 94.421 104.791 92.58 C 102.235 90.739 99.156 89.752 96 89.762 Z M 47.935 33.868 L 47.935 16.5 M 47.935 63.548 L 47.935 145.82 M 144.065 145.82 L 144.065 63.548"
        fill="none"
        stroke="#000000"
        stroke-width="12"
        stroke-linecap="round"
        stroke-linejoin="round"/>
    <path
        id="path_1"
        d="M 62.85 48.708 L 75.512 48.708 C 80.944 48.708 86.158 50.857 89.999 54.678 C 93.84 58.5 96 63.688 96 69.092 L 96 89.762 M 96 119.442 L 96 140.275 C 96 145.68 98.16 150.868 102.001 154.689 C 105.842 158.511 111.056 160.66 116.488 160.66 L 129.15 160.66"
        fill="none"
        stroke="#000000"
        stroke-width="12"
        stroke-linecap="round"
        stroke-linejoin="round"/>
</svg>
